src/assets/logo.svg

<?xml version="1.0" encoding="utf-8"?>
<!-- Generator: Adobe Illustrator 24.2.0, SVG Export Plug-In . SVG Version: 6.00 Build 0)  -->
<svg version="1.1" id="Calque_1" xmlns="http://www.w3.org/2000/svg" xmlns:xlink="http://www.w3.org/1999/xlink" x="0px" y="0px"
	 viewBox="0 0 935.66 101.77" style="enable-background:new 0 0 935.66 101.77;" xml:space="preserve">
<style type="text/css">
	.st0{fill:#20BAE5;}
	.st1{fill:none;stroke:#FC5253;stroke-width:3;stroke-miterlimit:10;}
	.st2{fill:#FC5253;}
</style>
<g>
	<path class="st0" d="M24.21,23.13v21.73h34.48v11.22H24.21v27.34H10.95v-71.4h52.12v11.12H24.21z"/>
	<path class="st0" d="M129.47,72.3v11.12H75.92v-71.4h52.12v11.12H89.18V41.7h34.48v10.91H89.18V72.3H129.47z"/>
	<path class="st0" d="M144.26,12.01h13.26v60.18h37.33v11.22h-50.59V12.01z"/>
	<path class="st0" d="M205.36,12.01h13.26v71.4h-13.26V12.01z"/>
	<path class="st0" d="M283.44,15.07c4.59,2.04,8.11,4.96,10.56,8.77c2.45,3.81,3.67,8.33,3.67,13.57c0,5.17-1.22,9.67-3.67,13.51
		c-2.45,3.84-5.97,6.78-10.56,8.82c-4.59,2.04-9.98,3.06-16.17,3.06h-16.12v20.6h-13.26v-71.4h29.38
		C273.46,12.01,278.85,13.03,283.44,15.07z M279.82,47.92c2.99-2.45,4.49-5.95,4.49-10.51c0-4.55-1.5-8.06-4.49-10.51
		c-2.99-2.45-7.38-3.67-13.16-3.67h-15.5v28.36h15.5C272.44,51.59,276.82,50.37,279.82,47.92z"/>
	<path class="st0" d="M364.48,72.3v11.12h-53.55v-71.4h52.12v11.12h-38.86V41.7h34.48v10.91h-34.48V72.3H364.48z"/>
	<path class="st0" d="M467.39,52.76c2.31,3.03,3.47,6.78,3.47,11.27c0,6.19-2.38,10.96-7.14,14.33c-4.76,3.37-11.7,5.05-20.81,5.05
		h-35.5v-71.4h33.46c8.43,0,14.93,1.65,19.48,4.95c4.55,3.3,6.83,7.84,6.83,13.62c0,3.54-0.82,6.67-2.45,9.38
		c-1.63,2.72-3.88,4.83-6.73,6.32C461.95,47.58,465.08,49.74,467.39,52.76z M420.68,22.42V42.1h18.77c4.62,0,8.18-0.83,10.66-2.5
		c2.48-1.67,3.72-4.1,3.72-7.29c0-3.26-1.24-5.73-3.72-7.4c-2.48-1.67-6.04-2.5-10.66-2.5H420.68z M457.5,62.71
		c0-6.87-5.13-10.3-15.4-10.3h-21.42v20.6h21.42C452.36,73.01,457.5,69.58,457.5,62.71z"/>
	<path class="st0" d="M531.75,83.41L517.17,62.5c-0.61,0.07-1.53,0.1-2.75,0.1H498.3v20.81h-13.26v-71.4h29.38
		c6.19,0,11.58,1.02,16.17,3.06s8.11,4.96,10.56,8.77c2.45,3.81,3.67,8.33,3.67,13.57c0,5.37-1.31,10-3.93,13.87
		c-2.62,3.88-6.38,6.77-11.27,8.67l16.42,23.46H531.75z M526.96,26.91c-2.99-2.45-7.38-3.67-13.16-3.67h-15.5v28.46h15.5
		c5.78,0,10.17-1.24,13.16-3.72c2.99-2.48,4.49-6,4.49-10.56C531.45,32.86,529.95,29.35,526.96,26.91z"/>
	<path class="st0" d="M605.91,66.89h-35.7l-7.04,16.52H549.5l32.13-71.4h13.06l32.23,71.4h-13.87L605.91,66.89z M601.52,56.49
		l-13.46-31.21l-13.36,31.21H601.52z"/>
	<path class="st0" d="M699.44,12.01v71.4h-10.91l-39.37-48.35v48.35h-13.16v-71.4h10.91l39.37,48.35V12.01H699.44z"/>
	<path class="st0" d="M718.61,12.01h31.21c7.62,0,14.38,1.48,20.3,4.44S780.63,23.59,783.9,29c3.26,5.41,4.9,11.65,4.9,18.72
		c0,7.07-1.63,13.31-4.9,18.72c-3.26,5.41-7.85,9.59-13.77,12.55s-12.68,4.44-20.3,4.44h-31.21V12.01z M749.22,72.19
		c5.24,0,9.84-1,13.82-3.01c3.98-2.01,7.04-4.86,9.18-8.57c2.14-3.71,3.21-8.01,3.21-12.9c0-4.9-1.07-9.2-3.21-12.9
		c-2.14-3.71-5.2-6.56-9.18-8.57c-3.98-2-8.58-3.01-13.82-3.01h-17.34v48.96H749.22z"/>
	<path class="st0" d="M816.53,79.69c-5.85-3.16-10.44-7.55-13.77-13.16c-3.33-5.61-5-11.88-5-18.82c0-6.94,1.67-13.21,5-18.82
		c3.33-5.61,7.92-10,13.77-13.16c5.85-3.16,12.41-4.74,19.69-4.74c7.28,0,13.84,1.58,19.69,4.74c5.85,3.16,10.44,7.53,13.77,13.11
		c3.33,5.58,5,11.87,5,18.87c0,7-1.67,13.29-5,18.87c-3.33,5.58-7.92,9.95-13.77,13.11c-5.85,3.16-12.41,4.74-19.69,4.74
		C828.94,84.43,822.38,82.85,816.53,79.69z M849.07,69.59c3.81-2.14,6.8-5.13,8.98-8.98c2.18-3.84,3.26-8.14,3.26-12.9
		c0-4.76-1.09-9.06-3.26-12.9c-2.18-3.84-5.17-6.83-8.98-8.98c-3.81-2.14-8.09-3.21-12.85-3.21c-4.76,0-9.04,1.07-12.85,3.21
		c-3.81,2.14-6.8,5.13-8.98,8.98c-2.18,3.84-3.26,8.14-3.26,12.9c0,4.76,1.09,9.06,3.26,12.9c2.17,3.84,5.17,6.83,8.98,8.98
		c3.81,2.14,8.09,3.21,12.85,3.21C840.98,72.81,845.26,71.74,849.07,69.59z"/>
</g>
<g>
	<path class="st1" d="M32.13,29.49v21.73h34.48v11.22H32.13v27.34H18.87v-71.4h52.12v11.12H32.13z"/>
	<path class="st1" d="M137.39,78.66v11.12H83.84v-71.4h52.12v11.12H97.1v18.56h34.48v10.91H97.1v19.69H137.39z"/>
	<path class="st1" d="M152.18,18.38h13.26v60.18h37.33v11.22h-50.59V18.38z"/>
	<path class="st1" d="M213.28,18.38h13.26v71.4h-13.26V18.38z"/>
	<path class="st1" d="M291.36,21.44c4.59,2.04,8.11,4.96,10.56,8.77c2.45,3.81,3.67,8.33,3.67,13.57c0,5.17-1.22,9.67-3.67,13.51
		c-2.45,3.84-5.97,6.78-10.56,8.82c-4.59,2.04-9.98,3.06-16.17,3.06h-16.12v20.6h-13.26v-71.4h29.38
		C281.38,18.38,286.77,19.4,291.36,21.44z M287.74,54.28c2.99-2.45,4.49-5.95,4.49-10.51c0-4.55-1.5-8.06-4.49-10.51
		c-2.99-2.45-7.38-3.67-13.16-3.67h-15.5v28.36h15.5C280.36,57.95,284.75,56.73,287.74,54.28z"/>
	<path class="st1" d="M372.4,78.66v11.12h-53.55v-71.4h52.12v11.12h-38.86v18.56h34.48v10.91h-34.48v19.69H372.4z"/>
	<path class="st1" d="M475.32,59.12c2.31,3.03,3.47,6.78,3.47,11.27c0,6.19-2.38,10.96-7.14,14.33c-4.76,3.37-11.7,5.05-20.81,5.05
		h-35.5v-71.4h33.46c8.43,0,14.93,1.65,19.48,4.95c4.55,3.3,6.83,7.84,6.83,13.62c0,3.54-0.82,6.67-2.45,9.38
		c-1.63,2.72-3.88,4.83-6.73,6.32C469.87,53.94,473,56.1,475.32,59.12z M428.6,28.78v19.69h18.77c4.62,0,8.18-0.83,10.66-2.5
		c2.48-1.67,3.72-4.1,3.72-7.29c0-3.26-1.24-5.73-3.72-7.4c-2.48-1.67-6.04-2.5-10.66-2.5H428.6z M465.42,69.07
		c0-6.87-5.13-10.3-15.4-10.3H428.6v20.6h21.42C460.29,79.37,465.42,75.94,465.42,69.07z"/>
	<path class="st1" d="M539.68,89.78l-14.59-20.91c-0.61,0.07-1.53,0.1-2.75,0.1h-16.12v20.81h-13.26v-71.4h29.38
		c6.19,0,11.58,1.02,16.17,3.06s8.11,4.96,10.56,8.77c2.45,3.81,3.67,8.33,3.67,13.57c0,5.37-1.31,10-3.93,13.87
		c-2.62,3.88-6.38,6.77-11.27,8.67l16.42,23.46H539.68z M534.88,33.27c-2.99-2.45-7.38-3.67-13.16-3.67h-15.5v28.46h15.5
		c5.78,0,10.17-1.24,13.16-3.72c2.99-2.48,4.49-6,4.49-10.56C539.37,39.22,537.87,35.72,534.88,33.27z"/>
	<path class="st1" d="M613.83,73.25h-35.7l-7.04,16.52h-13.67l32.13-71.4h13.06l32.23,71.4h-13.87L613.83,73.25z M609.44,62.85
		l-13.46-31.21l-13.36,31.21H609.44z"/>
	<path class="st1" d="M707.36,18.38v71.4h-10.91l-39.37-48.35v48.35h-13.16v-71.4h10.91l39.37,48.35V18.38H707.36z"/>
	<path class="st1" d="M726.54,18.38h31.21c7.62,0,14.38,1.48,20.3,4.44s10.51,7.14,13.77,12.55c3.26,5.41,4.9,11.65,4.9,18.72
		c0,7.07-1.63,13.31-4.9,18.72c-3.26,5.41-7.85,9.59-13.77,12.55s-12.68,4.44-20.3,4.44h-31.21V18.38z M757.14,78.56
		c5.24,0,9.84-1,13.82-3.01c3.98-2.01,7.04-4.86,9.18-8.57c2.14-3.71,3.21-8.01,3.21-12.9c0-4.9-1.07-9.2-3.21-12.9
		c-2.14-3.71-5.2-6.56-9.18-8.57c-3.98-2-8.58-3.01-13.82-3.01H739.8v48.96H757.14z"/>
	<path class="st1" d="M824.46,86.05c-5.85-3.16-10.44-7.55-13.77-13.16c-3.33-5.61-5-11.88-5-18.82c0-6.94,1.67-13.21,5-18.82
		c3.33-5.61,7.92-10,13.77-13.16c5.85-3.16,12.41-4.74,19.69-4.74c7.28,0,13.84,1.58,19.69,4.74c5.85,3.16,10.44,7.53,13.77,13.11
		c3.33,5.58,5,11.87,5,18.87c0,7-1.67,13.29-5,18.87c-3.33,5.58-7.92,9.95-13.77,13.11c-5.85,3.16-12.41,4.74-19.69,4.74
		C836.87,90.8,830.3,89.22,824.46,86.05z M856.99,75.95c3.81-2.14,6.8-5.13,8.98-8.98c2.18-3.84,3.26-8.14,3.26-12.9
		c0-4.76-1.09-9.06-3.26-12.9c-2.18-3.84-5.17-6.83-8.98-8.98c-3.81-2.14-8.09-3.21-12.85-3.21c-4.76,0-9.04,1.07-12.85,3.21
		c-3.81,2.14-6.8,5.13-8.98,8.98c-2.18,3.84-3.26,8.14-3.26,12.9c0,4.76,1.09,9.06,3.26,12.9c2.17,3.84,5.17,6.83,8.98,8.98
		c3.81,2.14,8.09,3.21,12.85,3.21C848.9,79.17,853.19,78.1,856.99,75.95z"/>
</g>
<circle class="st2" cx="909.62" cy="79.83" r="9.96"/>
</svg>

<svg id="Calque_1" data-name="Calque 1" xmlns="http://www.w3.org/2000/svg" viewBox="0 0 873.15 81.3">
  <g>
    <path d="M24.21,23.13V44.86H58.68V56.08H24.21V83.41H11V12H63.07V23.13Z" transform="translate(-10.95 -10.99)" fill="#20bae5"/>
    <path d="M129.47,72.3V83.41H75.92V12H128V23.13H89.18V41.7h34.48V52.61H89.18V72.3Z" transform="translate(-10.95 -10.99)" fill="#20bae5"/>
    <path d="M144.26,12h13.26V72.19h37.33V83.41H144.26Z" transform="translate(-10.95 -10.99)" fill="#20bae5"/>
    <path d="M205.36,12h13.26v71.4H205.36Z" transform="translate(-10.95 -10.99)" fill="#20bae5"/>
    <path d="M283.44,15.07A23.45,23.45,0,0,1,294,23.85a24.53,24.53,0,0,1,3.68,13.56A24.6,24.6,0,0,1,294,50.93a23.34,23.34,0,0,1-10.55,8.82,39.54,39.54,0,0,1-16.17,3.06H251.15v20.6H237.89V12h29.38A39.54,39.54,0,0,1,283.44,15.07Zm-3.62,32.85q4.49-3.68,4.48-10.51c0-4.55-1.49-8.06-4.48-10.5s-7.38-3.68-13.16-3.68H251.15V51.59h15.51Q275.33,51.59,279.82,47.92Z" transform="translate(-10.95 -10.99)" fill="#20bae5"/>
    <path d="M364.48,72.3V83.41H310.93V12h52.12V23.13H324.19V41.7h34.47V52.61H324.19V72.3Z" transform="translate(-10.95 -10.99)" fill="#20bae5"/>
    <path d="M467.39,52.76A18.05,18.05,0,0,1,470.86,64q0,9.28-7.14,14.34t-20.81,5H407.42V12h33.45q12.64,0,19.48,5a15.9,15.9,0,0,1,6.84,13.62A17.9,17.9,0,0,1,464.74,40,16.82,16.82,0,0,1,458,46.29,18.85,18.85,0,0,1,467.39,52.76ZM420.68,22.42V42.1h18.76q6.94,0,10.66-2.49a8.25,8.25,0,0,0,3.73-7.3,8.33,8.33,0,0,0-3.73-7.39q-3.72-2.51-10.66-2.5ZM457.5,62.71q0-10.3-15.4-10.3H420.68V73H442.1Q457.49,73,457.5,62.71Z" transform="translate(-10.95 -10.99)" fill="#20bae5"/>
    <path d="M531.75,83.41,517.17,62.5a26.14,26.14,0,0,1-2.76.11H498.3v20.8H485V12h29.37a39.54,39.54,0,0,1,16.17,3.06,23.53,23.53,0,0,1,10.56,8.78,24.6,24.6,0,0,1,3.67,13.56,24.16,24.16,0,0,1-3.93,13.87A23.3,23.3,0,0,1,529.61,60L546,83.41ZM527,26.91q-4.49-3.68-13.16-3.68H498.3V51.69h15.5q8.67,0,13.16-3.72t4.49-10.56C531.45,32.86,530,29.35,527,26.91Z" transform="translate(-10.95 -10.99)" fill="#20bae5"/>
    <path d="M605.91,66.89h-35.7l-7,16.52H549.5L581.63,12h13.06l32.23,71.4H613.05Zm-4.39-10.4L588.06,25.27,574.69,56.49Z" transform="translate(-10.95 -10.99)" fill="#20bae5"/>
    <path d="M699.44,12v71.4H688.52L649.15,35.07V83.41H636V12h10.92l39.37,48.35V12Z" transform="translate(-10.95 -10.99)" fill="#20bae5"/>
    <path d="M718.61,12h31.22a44.73,44.73,0,0,1,20.29,4.44A32.87,32.87,0,0,1,783.9,29a35.5,35.5,0,0,1,4.89,18.71,35.51,35.51,0,0,1-4.89,18.72A32.87,32.87,0,0,1,770.12,79a44.73,44.73,0,0,1-20.29,4.43H718.61Zm30.61,60.18a30.4,30.4,0,0,0,13.82-3,21.68,21.68,0,0,0,9.18-8.57,25.37,25.37,0,0,0,3.21-12.91,25.36,25.36,0,0,0-3.21-12.9A21.68,21.68,0,0,0,763,26.24a30.4,30.4,0,0,0-13.82-3H731.87v49Z" transform="translate(-10.95 -10.99)" fill="#20bae5"/>
    <path d="M816.53,79.69a35.22,35.22,0,0,1-13.77-13.16,36.16,36.16,0,0,1-5-18.82,36.12,36.12,0,0,1,5-18.81,35.22,35.22,0,0,1,13.77-13.16,43.19,43.19,0,0,1,39.38,0,35.36,35.36,0,0,1,13.77,13.1,36.11,36.11,0,0,1,5,18.87,36.06,36.06,0,0,1-5,18.87,35.31,35.31,0,0,1-13.77,13.11,43.27,43.27,0,0,1-39.38,0Zm32.54-10.1a23.25,23.25,0,0,0,9-9,25.8,25.8,0,0,0,3.26-12.91,25.79,25.79,0,0,0-3.26-12.9,23.34,23.34,0,0,0-9-9,27.33,27.33,0,0,0-25.7,0,23.34,23.34,0,0,0-9,9,25.69,25.69,0,0,0-3.26,12.9,25.7,25.7,0,0,0,3.26,12.91,23.25,23.25,0,0,0,9,9,27.25,27.25,0,0,0,25.7,0Z" transform="translate(-10.95 -10.99)" fill="#20bae5"/>
  </g>
  <g>
    <path d="M32.13,29.49V51.22H66.61V62.44H32.13V89.78H18.87V18.38H71V29.49Z" transform="translate(-10.95 -10.99)" fill="none" stroke="#fc5253" stroke-miterlimit="10" stroke-width="3"/>
    <path d="M137.39,78.66V89.78H83.84V18.38H136V29.49H97.1V48.06h34.48V59H97.1V78.66Z" transform="translate(-10.95 -10.99)" fill="none" stroke="#fc5253" stroke-miterlimit="10" stroke-width="3"/>
    <path d="M152.18,18.38h13.26V78.56h37.34V89.78h-50.6Z" transform="translate(-10.95 -10.99)" fill="none" stroke="#fc5253" stroke-miterlimit="10" stroke-width="3"/>
    <path d="M213.28,18.38h13.26v71.4H213.28Z" transform="translate(-10.95 -10.99)" fill="none" stroke="#fc5253" stroke-miterlimit="10" stroke-width="3"/>
    <path d="M291.36,21.44a23.51,23.51,0,0,1,10.56,8.77,24.52,24.52,0,0,1,3.67,13.56,24.6,24.6,0,0,1-3.67,13.52,23.42,23.42,0,0,1-10.56,8.82,39.54,39.54,0,0,1-16.17,3.06H259.08V89.78H245.82V18.38h29.37A39.54,39.54,0,0,1,291.36,21.44Zm-3.62,32.84q4.49-3.68,4.49-10.51t-4.49-10.5q-4.49-3.68-13.16-3.67h-15.5V58h15.5Q283.25,58,287.74,54.28Z" transform="translate(-10.95 -10.99)" fill="none" stroke="#fc5253" stroke-miterlimit="10" stroke-width="3"/>
    <path d="M372.4,78.66V89.78H318.85V18.38H371V29.49H332.11V48.06h34.48V59H332.11V78.66Z" transform="translate(-10.95 -10.99)" fill="none" stroke="#fc5253" stroke-miterlimit="10" stroke-width="3"/>
    <path d="M475.32,59.12a18.06,18.06,0,0,1,3.46,11.28q0,9.27-7.14,14.33t-20.8,5h-35.5V18.38H448.8q12.65,0,19.48,4.94a15.91,15.91,0,0,1,6.83,13.62,17.88,17.88,0,0,1-2.45,9.38,16.76,16.76,0,0,1-6.73,6.33A18.92,18.92,0,0,1,475.32,59.12ZM428.6,28.78V48.47h18.77q6.93,0,10.66-2.5a8.25,8.25,0,0,0,3.72-7.3A8.33,8.33,0,0,0,458,31.28q-3.73-2.51-10.66-2.5Zm36.82,40.29q0-10.3-15.4-10.3H428.6v20.6H450Q465.43,79.37,465.42,69.07Z" transform="translate(-10.95 -10.99)" fill="none" stroke="#fc5253" stroke-miterlimit="10" stroke-width="3"/>
    <path d="M539.68,89.78,525.09,68.87c-.61.06-1.53.1-2.75.1H506.22V89.78H493V18.38h29.38a39.52,39.52,0,0,1,16.16,3.06,23.51,23.51,0,0,1,10.56,8.77,24.52,24.52,0,0,1,3.67,13.56,24.19,24.19,0,0,1-3.93,13.88,23.38,23.38,0,0,1-11.27,8.67L554,89.78Zm-4.8-56.51q-4.49-3.68-13.16-3.67h-15.5V58.05h15.5q8.67,0,13.16-3.72t4.49-10.56Q539.37,36.94,534.88,33.27Z" transform="translate(-10.95 -10.99)" fill="none" stroke="#fc5253" stroke-miterlimit="10" stroke-width="3"/>
    <path d="M613.83,73.25h-35.7l-7,16.53H557.42l32.13-71.4h13.06l32.23,71.4H621Zm-4.39-10.4L596,31.64,582.62,62.85Z" transform="translate(-10.95 -10.99)" fill="none" stroke="#fc5253" stroke-miterlimit="10" stroke-width="3"/>
    <path d="M707.36,18.38v71.4H696.45L657.08,41.43V89.78H643.92V18.38h10.91L694.2,66.72V18.38Z" transform="translate(-10.95 -10.99)" fill="none" stroke="#fc5253" stroke-miterlimit="10" stroke-width="3"/>
    <path d="M726.54,18.38h31.21a44.8,44.8,0,0,1,20.3,4.43,32.91,32.91,0,0,1,13.77,12.55,35.53,35.53,0,0,1,4.89,18.72,35.5,35.5,0,0,1-4.89,18.71,32.91,32.91,0,0,1-13.77,12.55,44.8,44.8,0,0,1-20.3,4.44H726.54Zm30.6,60.18a30.4,30.4,0,0,0,13.82-3A21.51,21.51,0,0,0,780.14,67a25.36,25.36,0,0,0,3.21-12.9,25.37,25.37,0,0,0-3.21-12.91A21.57,21.57,0,0,0,771,32.6a30.4,30.4,0,0,0-13.82-3H739.8v49Z" transform="translate(-10.95 -10.99)" fill="none" stroke="#fc5253" stroke-miterlimit="10" stroke-width="3"/>
    <path d="M824.46,86.05a35.09,35.09,0,0,1-13.77-13.16,36.06,36.06,0,0,1-5-18.81,36.07,36.07,0,0,1,5-18.82A35.09,35.09,0,0,1,824.46,22.1a43.25,43.25,0,0,1,39.37,0A35.18,35.18,0,0,1,877.6,35.21a36.06,36.06,0,0,1,5,18.87,36.11,36.11,0,0,1-5,18.87,35.22,35.22,0,0,1-13.77,13.1,43.16,43.16,0,0,1-39.37,0ZM857,76a23.25,23.25,0,0,0,9-9,25.66,25.66,0,0,0,3.26-12.9A25.72,25.72,0,0,0,866,41.17a23.25,23.25,0,0,0-9-9,27.25,27.25,0,0,0-25.7,0,23.16,23.16,0,0,0-9,9,25.73,25.73,0,0,0-3.27,12.91A25.67,25.67,0,0,0,822.32,67a23.16,23.16,0,0,0,9,9A27.25,27.25,0,0,0,857,76Z" transform="translate(-10.95 -10.99)" fill="none" stroke="#fc5253" stroke-miterlimit="10" stroke-width="3"/>
  </g>
</svg>
